X:1
P: Miss Douglas
C: Athole Collection, arr. T. Traub 2-24-2004
R: Strathspey
M: 4/4
K: G
L: 1/8
|: B/c/|"G"d2 B>c d<GB<G|"C"E<cA>G "D"F<D DB/c/|"G"d2 B>g d<G"Em"B<G|"Am"E<A"D"D>F "G"G2 G :|
B|"G"d<gg>f "Am"e<aa>g|"D"f>de>f "G"g>a g<G|"G"d<gg>f "C"e<aa>g|"D"f<de>f "G"g2 g>a|
"G"b<g"D"a<f "Em"g<e"D"f<d|"C"e<c"G"dB c<e|"G"d2 B<g d<GB<G|"C"E<c "D"B/A/G/F/ "G"G2 G |]
